src/icons/gcp.svg

<?xml version="1.0" encoding="UTF-8"?>
<svg xmlns="http://www.w3.org/2000/svg" xmlns:xlink="http://www.w3.org/1999/xlink" width="32" height="32" viewBox="0 0 32 32" version="1.1">
<g id="surface1">
<path style=" stroke:none;fill-rule:nonzero;fill:rgb(68.235296%,79.607844%,98.039216%);fill-opacity:1;" d="M 11.199219 11.199219 L 20.800781 11.199219 L 20.800781 20.800781 L 11.199219 20.800781 Z M 11.199219 11.199219 "/>
<path style=" stroke:none;fill-rule:nonzero;fill:rgb(40.000001%,61.56863%,96.470588%);fill-opacity:1;" d="M 14.398438 0 L 17.601562 0 L 17.601562 6.398438 L 14.398438 6.398438 Z M 8 0 L 11.199219 0 L 11.199219 6.398438 L 8 6.398438 Z M 20.800781 0 L 24 0 L 24 6.398438 L 20.800781 6.398438 Z M 20.800781 0 "/>
<path style=" stroke:none;fill-rule:nonzero;fill:rgb(25.882354%,52.156866%,95.686275%);fill-opacity:1;" d="M 14.398438 25.601562 L 17.601562 25.601562 L 17.601562 32 L 14.398438 32 Z M 8 25.601562 L 11.199219 25.601562 L 11.199219 32 L 8 32 Z M 20.800781 25.601562 L 24 25.601562 L 24 32 L 20.800781 32 Z M 25.601562 17.601562 L 25.601562 14.398438 L 32 14.398438 L 32 17.601562 Z M 25.601562 24 L 25.601562 20.800781 L 32 20.800781 L 32 24 Z M 25.601562 11.199219 L 25.601562 8 L 32 8 L 32 11.199219 Z M 25.601562 11.199219 "/>
<path style=" stroke:none;fill-rule:nonzero;fill:rgb(40.000001%,61.56863%,96.470588%);fill-opacity:1;" d="M 0 17.601562 L 0 14.398438 L 6.398438 14.398438 L 6.398438 17.601562 Z M 0 24 L 0 20.800781 L 6.398438 20.800781 L 6.398438 24 Z M 0 11.199219 L 0 8 L 6.398438 8 L 6.398438 11.199219 Z M 0 11.199219 "/>
<path style=" stroke:none;fill-rule:nonzero;fill:rgb(68.235296%,79.607844%,98.039216%);fill-opacity:1;" d="M 4.800781 4.800781 L 4.800781 27.199219 L 27.199219 27.199219 L 27.199219 4.800781 Z M 24 24 L 8 24 L 8 8 L 24 8 Z M 24 24 "/>
<path style=" stroke:none;fill-rule:nonzero;fill:rgb(40.000001%,61.56863%,96.470588%);fill-opacity:1;" d="M 11.199219 20.800781 L 20.800781 20.800781 L 16 16 Z M 11.199219 20.800781 "/>
<path style=" stroke:none;fill-rule:nonzero;fill:rgb(25.882354%,52.156866%,95.686275%);fill-opacity:1;" d="M 16 16 L 20.800781 20.800781 L 20.800781 11.199219 Z M 16 16 "/>
</g>
</svg>

<svg xmlns="http://www.w3.org/2000/svg" width="32" height="32" stroke="none" stroke-linecap="round" stroke-linejoin="round" fill="#fff" fill-rule="nonzero"><path d="M11.2 11.2h9.6v9.6h-9.6z" fill="#aecbfa"/><path d="M14.4 0h3.2v6.4h-3.2zM8 0h3.2v6.4H8zm12.8 0H24v6.4h-3.2z" fill="#669df6"/><path d="M14.4 25.6h3.2V32h-3.2zm-6.4 0h3.2V32H8zm12.8 0H24V32h-3.2zm4.8-8v-3.2H32v3.2zm0 6.4v-3.2H32V24zm0-12.8V8H32v3.2z" fill="#4285f4"/><path d="M0 17.6v-3.2h6.4v3.2zM0 24v-3.2h6.4V24zm0-12.8V8h6.4v3.2z" fill="#669df6"/><path d="M4.8 4.8v22.4h22.4V4.8zM24 24H8V8h16z" fill="#aecbfa"/><path d="M11.2 20.8h9.6L16 16l-4.8 4.8z" fill="#669df6"/><path d="M16 16l4.8 4.8v-9.6L16 16z" fill="#4285f4"/></svg>
